X: 88
T:Persian Ricardo. JC.088
T:Galopede,aka. JC.088
T:Yarmouth Reel,aka. JC.088
M:2/4
L:1/16
Q:100
C:Galopede,Yarmouth Reel,
S:John Clare,Poet,Helpston. (1793-1864)
R:Country-dance
O:England
A:Northamptonshire
N:
Z:vmp.P. Headford
K:G
dc|B2Bc A2AB|G2G2G2 AB|c2cd B2Bc|A2A2A2dc|!
B2Bc A2AB|G2G2G2 AB|cBAG FGAB|G2G2G2|!
|dc|B2gf e2ed(|dcBc A2 dc|B2gf edcB|A2A2A2 dc|!
B2gf e2ed|dcBc A2 dc|BdcB AcBA|G2G2G2|!
|Bc|d2d2d2g2|d2d2d2g2|d2d2 edcB|c2A2A2 Bc|!
d2d2d2g2|d2d2d2g2|d2Bd dcBA|G2G2G2|]
W:MS includes Dance Instructions. |
